X:1
T:Fado Serenata récita do 5 ano teologico-jurídico 1901 Universidade de Coimbra
T:Fado serenata
T:Manuel Luiz Ferreira Tavares
T:Nanzianceno de Vasconcellos
T:Récita do 5.º anno theologico-juridico 1900-1901
T:Ao meu caro amigo Jose Paes Telles 
T:Galáxia Sonora Coimbrã 2020 (A. Caetano)
T:Galáxia Sonora Coimbrã 2020 (A. Caetano)
C:Manuel Luiz Ferreira TAvares
Z:Galáxia Sonora Coimbrã 2020 (A. Caetano)
%%score 1 { 2 | 3 }
L:1/8
Q:1/4=60
M:2/4
K:F
V:1 treble nm="Voz"
V:2 treble nm="Piano"
V:3 bass 
V:1
 z4 | z4 | z4 | z2 z A |: A>F G/FE/ | A2 A>c | c>A B/EE/ |1 F3 A :|2 F2 F>e || e>=B B/^cd/ | %10
w: |||O|rou- xi- nol quan- do|tri- na es-|co- lhe'a luz do lu-|ar O|ar * Mas|a tua vo- oz di-|
 e2 e>^f | ^f>^c c/de/ | ^f3 F | dF F/FF/ | ^cE z E | ^F>A ^G/G=B/ | Ac- cc |: c>c c/cc/ | c2 cc | %19
w: vi- na can-|ta'á luz do teu o-|lhar Mas|a tua vo- oz di-|vi- na can-|ta'a luz do teu o-|lhar ah! _ Tem|o som tão pu- ro'e|lin- do As|
 c>B E/EE/ |1 F2 Fc :|2 F2 F>A || A>A A/AA/ | A2 A>e | e>d =B/^GE/ | A2 A>c | c>c c/cc/ | c2 c>c | %28
w: fal- las da tu- a|boc- ca Tem|boc- ca Pa-|re- cem 'strel- las ca-|hin- do Em|chu- va dou- ra- da'e|lou- ca Pa-|re- cem 'strel- las ca-|hin- do em|
 A>B A/EF/ | D2 z2 | z4 | z4 |] %32
w: chu- va dou- ra- da'e|louca.|||
V:2
 [Aa]2 [Aa]2 | [Aa]4- | [Aa] z z2 | z2 z A |: A>F G/FE/ | A2 A>c | c>A B/EE/ |1 F3 A :|2 F2 F>e || %9
 e>=B B/^cd/ | e2 e>^f | ^f>^c c/de/ | ^f3 F | dF F/FF/ | ^cE z E | ^F>A ^G/G=B/ | Ac- cc |: %17
 c>c c/cc/ | c2 cc | c>B E/EE/ |1 F2 Fc :|2 F2 F>A || A>A A/AA/ | A2 A>e | e>d =B/^GE/ | A2 A>c | %26
 c>c c/cc/ | c2 c>c | A>B A/EF/ | D z z2 | z4 | z4 |] %32
V:3
 z4 | z2 GE | FD EA, | [D,,D,][F,A,D] [F,A,D] z |: [D,,D,][F,A,D] [G,A,^C] z | %5
 [D,,D,][F,A,D] [F,A,D] z | [F,,F,][C,F,A,] [C,E,B,] z |1 [F,,F,][F,A,C] [F,A,C] z :|2 %8
 [F,,F,][F,A,C] [F,A,C] z || [^G,,^G,][E,G,D] [E,G,D] z | [A,,A,][E,A,^C] [E,A,C] z | %11
 [B,,B,][^F,B,E] [F,B,E] z | [=B,,=B,][^F,B,D] [F,B,D] z | D,[F,=B,] [F,B,] z | %14
 [E,,E,][E,A,^C] [E,A,C] z | D,[^F,=B,] E,[^G,D] | [A,^C][C,E,G,B,] z2 |: [F,,F,][A,CF][A,CF] z | %18
 [G,,G,][B,CE][B,CE] z | [C,,C,][C,E,B,][C,E,B,] z |1 [F,,F,][F,A,C][F,A,C] z :|2 %21
 [F,,F,][F,A,C][F,A,C] z || ^C,[G,A,][G,A,] z | D,[F,A,D][F,A,D] z | [E,,E,][E,^G,D][E,G,D] z | %25
 [A,,A,][E,A,C][E,A,C] z | E,[B,C][B,C] z | F,[A,C][A,C] z | ^C,[G,A,]A,,[E,A,^C] | %29
 [D,F,A,] z [A,,A,] z | [D,D] z [A,,A,] z | [D,,D,] z !fermata!z2 |] %32

